!!!COM: Dunstable, John
!!!OTL: Sancta Dei Genitrix
!!!ONM: No. 47
!!!YOR: from: "Musica Britannica" Vol. 8, edited by Manfred F. Bukofzer,
!!!YOR: 2nd rev. ed. (prepared by Margaret Bent, Ian Bent & Brian Trowell), pp.119-121
!!!YOO: Royal Musical Association (London)
!!!YOY: 1970
**kern	**kern	**kern
*ICvox	*ICvox	*ICvox
! tenor	! contratenor	! discantus
*M3/4	*M3/4	*M3/4
=1	=1	=1
*>A	*>A	*>A
!! Section 'A'; (O) mensuration.
2.f	2F	2f
.	4F	4a
=2	=2	=2
2.e	4c	4g
.	2A	4.cc
.	.	16cc
.	.	16dd
=3	=3	=3
4g	8r	4ee
.	8G	.
2f	2B-	4.dd
.	.	8cc
=4	=4	=4
4e	4c	4cc
2d	2G	8b
.	.	8cc
.	.	8.b
.	.	16a
=5	=5	=5
[2.c	4g	4.cc
.	2e	.
.	.	8b
.	.	8a
.	.	16g
.	.	16f
=6	=6	=6
2c]	4g	4e
.	8r	8f
.	8e	4g
8e	8c	.
8d	[8d	8f
=7	=7	=7
8f	8d]	8a
4e	8c	8cc
.	4G	8b
8g	.	8g
4f#x	8.d	4a
.	16c	.
=8	=8	=8
2g	4e	4g
.	2c	4r
4e	.	8cc
.	.	8dd
=9	=9	=9
4d	4r	4ff
2f	8A	8ee
.	4B-	4dd
.	8A	8ee
=10	=10	=10
8f	8B-	8dd
8e	4c	4cc
8c	.	.
8e	4g	16b
.	.	16cc
4d	.	8.b
.	8f#x	.
.	.	16a
=11	=11	=11
[2.c	[2.g	2.cc
=12	=12	=12
2c]	4g]	2.r
.	4e	.
4r	4c	.
=13	=13	=13
4f	4d	4a
4f	4d	4a
8f	8d	8a
8f	8d	8a
=14	=14	=14
2f	2d	2a
4f	4d	4a
=15	=15	=15
2g;	2G;	2b;
4r	4r	4r
=16	=16	=16
2c	4.g	4cc
.	.	4cc
.	8e	.
4A	4f	4cc
=17	=17	=17
2G	2g	8dd
.	.	8cc
.	.	4b
[4d	4r	4a
=18	=18	=18
4d]	2G	4.b
2e	.	.
.	.	8g
.	4c	4g
=19	=19	=19
2f	4F	4r
.	2B-	4d
4d	.	4d
=20	=20	=20
4d	4r	4f
2A	2c	4f
.	.	4a
=21	=21	=21
4c	4e	4a
4B-	4d	4g
4A	4f	8a
.	.	[8cc
=22	=22	=22
8c	8e	8cc]
8G	4.d	8b
8B-	.	8g
8c	.	8a
4A	8.c	16f#x
.	.	16e
.	.	8f#x
.	16Bnx	.
=23	=23	=23
[2.G	[2.d	2.g
=24	=24	=24
2.G]	4d]	2r
.	2d	.
.	.	4b
=25	=25	=25
2g	2G	8b
.	.	4dd
.	.	8cc
4f	4d	4a
=26	=26	=26
4g	4.e	4g
4c	.	2cc
.	8f	.
[4e	4g	.
=27	=27	=27
4e]	4g	4b
2f	2d	4.a
.	.	8g
=28	=28	=28
8r	8e	4g
4g	4c	.
.	.	8a
4d	4B-	16g
.	.	16f
.	.	4e
8c	8A	.
=29	=29	=29
2.d	2B-	4d
.	.	4r
.	4B-	8f
.	.	8g
=30	=30	=30
2c	2F	2a
4B-	4r	4g
=31	=31	=31
4c	8F	8.a
.	4A	.
.	.	16b-x
8A	.	8cc
4G	4B-	8.dd
.	.	16cc
[8d	8G	[8b-x
=32	=32	=32
8d]	8B-	16b-x]
.	.	16a
8G	4d	8.b-x
4B-	.	.
.	.	16g
.	8d	8.g
4A	4c	.
.	.	16e
.	.	8f#x
=33	=33	=33
[2.G	4r	2.g
.	[2d	.
=34	=34	=34
2.G]	2d]	2.r
.	4d	.
=35	=35	=35
2.g	2.G	2b
.	.	8b
.	.	8a
=36	=36	=36
4c	4r	8cc
.	.	8dd
2g	2c	4.ee
.	.	8dd
=37	=37	=37
8d	8f	4.dd
4f	4d	.
8g	8G	8b
4e	4A	4cc
=38	=38	=38
4d	4B-	4dd
8r	4G	8dd
4g	.	8b
.	8r	4a
8f#x	8d	.
=39	=39	=39
2g	4e	2g
.	2c	.
4e	.	4cc
=40	=40	=40
2c	8r	8cc
.	8g	8b
.	4e	8g
.	.	4a
4d	4f	.
.	.	[8b-x
=41	=41	=41
8d	8r	16b-x]
.	.	16g
8B-	4d	8.g
8G	.	.
.	.	16f
8B-	8d	8g
4A	4c	8.f#x
.	.	16e
=42	=42	=42
2.G	2d	2g
.	4d	4r
=43	=43	=43
2A	2c	4.f
.	.	8g
4c	4F	4a
=44	=44	=44
8c	8A	8a
4d	4G	8.b-x
.	.	16a
4c	4A	4a
8B-	8d	8g
=45	=45	=45
4A	4.e	4a
8c	.	8a
8c	8e	8a
4c	4e	4a
=46	=46	=46
4F	4.f	4a
2B-	.	4.g
.	8d	.
.	4d	.
.	.	8f
=47	=47	=47
4A	8r	4.f
.	8c	.
2G	8d	.
.	4B-	8e
.	.	8e
.	8A	8d
=48	=48	=48
[2.F	[2.c	2.f
=49	=49	=49
2F]	2.c]	2.r
4r	.	.
=50	=50	=50
4f	4d	4a
2g	2G	4.b-x
.	.	8g
=51	=51	=51
4e	2A	4cc
8f	.	4.a
8e	.	.
4c	4e	.
.	.	8b-x
=52	=52	=52
4B-	4d	4g
2c	4.e	4a
.	.	8f
.	8g	[8e
=53	=53	=53
8c	8r	8e]
4B-	4d	8f
.	.	8g
8G	8e	4g
4A	4c	.
.	.	8f#x
=54	=54	=54
[2.G	2d	4g
.	.	4r
.	4d	[4dd
=55	=55	=55
4G]	4B-	4dd]
2g	2G	4.b-x
.	.	8a
=56	=56	=56
4f	4d	4a
4e	4r	4g
4c	4e	8a
.	.	8b
=57	=57	=57
4e	4c	4.cc
2d	2G	.
.	.	16b
.	.	16cc
.	.	16dd
.	.	8b
.	.	16a
=58	=58	=58
2.c	8r	4cc
.	8A	.
.	2F	8r
.	.	4a
.	.	[8cc
=59	=59	=59
8A	8f	8cc]
4G	4g	4b-x
8c	8e	4a
4d	8f	.
.	[8d	[8b-x
=60	=60	=60
8G	4.d]	8b-x]
4B-	.	4g
8c	8e	16f#x
.	.	16g
4A	8.c	8.f#x
.	16Bnx	16e
=61	=61	=61
2G	2d	4g
.	.	8r
.	.	8b
4d	4G	4b
=62	=62	=62
4c	4r	8a
.	.	4g
4.e	2c	.
.	.	4cc
8f	.	8a
=63	=63	=63
2g;	2G;	2b;
4r	4r	4r
=64	=64	=64
*>B	*>B	*>B
!! Section 'B'; (C2) mensuration.
*M2/2	*M2/2	*M2/2
[1c	1F	2.cc
.	.	4a
=65	=65	=65
1c]	4c	2a
.	2e	.
.	.	2g
.	4e	.
=66	=66	=66
1e	2c	4.cc
.	.	8b
.	4A	4cc
.	4B-	[4dd
=67	=67	=67
1d	4r	8dd]
.	.	8b
.	2.G	4cc
.	.	4.b
.	.	8a
=68	=68	=68
[1c	4.g	2cc
.	8f	.
.	2e	4r
.	.	[4a
=69	=69	=69
1c]	4c	4a]
.	4.e	2g
.	8d	.
.	4c	4e
=70	=70	=70
1d	2B-	2f
.	2f	4r
.	.	4a
=71	=71	=71
[1G	4r	4b
.	4d	2dd
.	2d	.
.	.	4cc
=72	=72	=72
1G]	4e	2.b
.	2g	.
.	[4e	4g
=73	=73	=73
1c	4e]	2g
.	4c	.
.	4r	4e
.	4f	4d
=74	=74	=74
1B-	4d	2f
.	2f	.
.	.	2g
.	4d	.
=75	=75	=75
*M3/2	*M3/2	*M3/2
1.A	4.e	4a
.	.	4cc
.	8d	.
.	4c	8b-x
.	.	8a
.	4d	4g
.	4.c	4.f#x
.	8Bnx	8e
=76	=76	=76
*M2/2	*M2/2	*M2/2
[1G	2d	1g
.	4r	.
.	4d	.
=77	=77	=77
1G]	2g	2r
.	2d	[2b
=78	=78	=78
1d	1G	4b]
.	.	4b
.	.	2b
=79	=79	=79
1c	4r	4.cc
.	4g	.
.	.	8b
.	4.e	8a
.	.	8g
.	.	[4g
.	8c	.
=80	=80	=80
1d	2B-	8g]
.	.	8f
.	.	2d
.	4r	.
.	4B-	4f
=81	=81	=81
1A	2c	4g
.	.	2a
.	2F	.
.	.	4f
=82	=82	=82
1c	1A	2e
.	.	[2a
=83	=83	=83
1B-	2d	4a]
.	.	4g
.	2r	2g
=84	=84	=84
2A	4.c	4a
.	.	2cc
.	8F	.
2r	2F	.
.	.	4b-x
=85	=85	=85
1c	4r	2a
.	4e	.
.	2e	4g
.	.	[4a
=86	=86	=86
2F	4d	8a]
.	.	8f
.	4f	2f
2A	4.e	.
.	.	8e
.	8c	8f
=87	=87	=87
1G	4d	4g
.	2B-	2e
.	4A	8d
.	.	8e
=88	=88	=88
1F	1c	2f
.	.	2r
=89	=89	=89
1B-	1G	2g
.	.	2g
=90	=90	=90
1c	2r	2g
.	2A	[2e
=91	=91	=91
1A	1c	2e]
.	.	4f
.	.	4g
=92	=92	=92
2c	2f	2a
[2B-	2r	[2dd
=93	=93	=93
2B-]	2G	4dd]
.	.	4cc
2A	2c	[2cc
=94	=94	=94
1c	2e	4cc]
.	.	4b
.	4r	4a
.	4e	4g
=95	=95	=95
2e	2c	2g
2d	4r	4a
.	4G	4b
=96	=96	=96
4c	4A	4cc
2f	2B-	4.dd
.	.	8b-x
4c	[4A	[4cc
=97	=97	=97
4e	4A]	4cc]
4f	4F	4.cc
2d	2G	.
.	.	4b
.	.	8a
=98	=98	=98
2c	2A	2cc
4r	2d	4b-x
[4F	.	[4a
=99	=99	=99
*M6/4	*M6/4	*M6/4
4F]	4c	8a]
.	.	8g
2c	2A	4.a
.	.	8f
4A	2c	4.f
2G	.	4e
.	4Bnx	.
.	.	8d
=100	=100	=100
*M2/2	*M2/2	*M2/2
[1F	[1c	1f
=101	=101	=101
1F]	1c]	1r
=102	=102	=102
1f	1F	2a
.	.	2a
=103	=103	=103
2d	2f	4r
.	.	2a
4r	2d	.
4B	.	4g
=104	=104	=104
*M3/2	*M3/2	*M3/2
1c	2r	2e
.	4g	4r
.	4.e	2g
4r	.	.
.	8d	.
4c	4e	4g
=105	=105	=105
*M2/2	*M2/2	*M2/2
1F	1f	2.a
.	.	4b
=106	=106	=106
1A	1e	2.cc
.	.	4b
=107	=107	=107
4r	4e	2g
4Bnx	2d	.
2d	.	4r
.	4G	4b
=108	=108	=108
1c	2A	4a
.	.	4.cc
.	2e	.
.	.	8b
.	.	[4g
=109	=109	=109
4c	4e	8g]
.	.	8e
2A	4c	4.f
.	2F	.
.	.	8g
[4c	.	[4a
=110	=110	=110
4c]	4c	4a]
2G	4d	4.b-x
.	2G	.
.	.	8g
[4B-	.	[4g
=111	=111	=111
4B-]	4d	4g]
4c	4.e	4g
2A	.	4.f#x
.	8d	.
.	8c	.
.	8Bnx	8e
=112	=112	=112
1G	1d	1g
=113	=113	=113
*>C	*>C	*>C
!! Section 'C'; (O/) mensuration.
*M3/4	*M3/4	*M3/4
2.g	2.G	4.g
.	.	8a
.	.	4b
=114	=114	=114
2c	4r	4a
.	4e	4g
4d	4f	8b
.	.	8cc
=115	=115	=115
4B-	8r	4dd
.	8d	.
2c	2A	8cc
.	.	4ee
.	.	8dd
=116	=116	=116
4e	4c	4.cc
2d	8r	.
.	4f	8a
.	.	4b
.	16e	.
.	16f	.
=117	=117	=117
[2.c	4g	4cc
.	2e	8r
.	.	4a
.	.	8g
=118	=118	=118
4c]	4r	4a
2d	4f	4.b-
.	8d	.
.	[8d	8g
=119	=119	=119
4B-	8d]	4.g
.	4e	.
2A	.	.
.	4c	8g
.	.	8.f#x
.	8Bnx	.
.	.	16e
=120	=120	=120
[2.G	[2.d	2.g
=121	=121	=121
2G]	4d]	2r
.	4g	.
4B-	4d	4g
=122	=122	=122
2c	2e	4a
.	.	8g
.	.	8e
4d	4r	4f
=123	=123	=123
4c	4g	4e
2B-	2G	8d
.	.	4g
.	.	8f
=124	=124	=124
4c	4A	4e
4A	4c	8f
.	.	4a
8c	8e	.
[8B-	[8d	[8g
=125	=125	=125
8B-]	8d]	16g]
.	.	16e
8F	4c	4.f
8A	.	.
8B-	8d	.
4G	8.B-	8e
.	.	8d
.	16A	.
=126	=126	=126
2F	4c	4f
.	4f	4r
[4c	4r	4a
=127	=127	=127
4c]	4e	4a
4A	8c	4cc
.	16f	.
.	32e	.
.	32f	.
4G	8g	8b-x
.	[8d	[8g
=128	=128	=128
8B-	8d]	8g]
4c	4e	8.a
.	.	16g
8G	8d	4g
4A	8.c	.
.	.	8f#x
.	16Bnx	.
=129	=129	=129
[2.G	4d	2.g
.	4r	.
.	4d	.
=130	=130	=130
4G]	4d	4r
2d	2G	4.b
.	.	8g
=131	=131	=131
4c	4r	4a
2Bnx	2G	8b
.	.	4dd
.	.	8b
=132	=132	=132
4c	4A	4a
2d	2G	4.b
.	.	8cc
=133	=133	=133
4d	8r	8b
.	8f	4a
8c	8g	.
8A	8e	8a
4B-	12d	8g
.	12c	.
.	.	8f
.	12d	.
=134	=134	=134
2A	2e	4A
.	.	4r
4r	[4A	[4cc
=135	=135	=135
2a	4A]	8cc]
.	.	8cc
.	2c	4cc
4e	.	4cc
=136	=136	=136
4f	2r	4dd
2g	.	4.ee
.	4G	.
.	.	8cc
=137	=137	=137
4e	4c	4.cc
2d	2G	.
.	.	4b
.	.	8a
=138	=138	=138
2c	8g	8.cc
.	4e	.
.	.	16b
.	.	4a
.	8c	.
4c	4e	8g
.	.	[8a
=139	=139	=139
4d	4f	8a]
.	.	8f
2c	4g	4e
.	[4e	8r
.	.	[8g
=140	=140	=140
4c	4e]	8g]
.	.	8f
4F	4f	4a
[4A	[4c	8b
.	.	[8cc
=141	=141	=141
4A]	4c]	8cc]
.	.	8b
2c	4r	4a
.	4F	8g
.	.	[8a
=142	=142	=142
8F	4c	16a]
.	.	16f
4A	.	4f
.	8A	.
8B-	8G	8f
4G	4Bnx	8.e
.	.	16d
=143	=143	=143
2F	2c	4f
.	.	2r
4r	4r	.
=144	=144	=144
*M3/2	*M3/2	*M3/2
1c;	1F;	1a;
2F;	2f;	2a;
=145	=145	=145
1B;	1d;	1g;
2r	2r	2r
=146	=146	=146
2A;	2c;	2a;
1B;	1d;	1f;
=147	=147	=147
1c;	1A;	1e;
2r	2r	2r
=148	=148	=148
*>D	*>D	*>D
!! Section 'D'; (O) mensuration.
*M3/4	*M3/4	*M3/4
2F	2c	4.f
.	.	8g
4f	4F	[4a
=149	=149	=149
4d	4f	8a]
.	.	8g
2c	4g	4e
.	4e	8a
.	.	[8cc
=150	=150	=150
8c	8e	8cc]
4B-	4d	8.dd
.	.	16cc
8G	4g	8b
4c	.	8g
.	8e	8cc
=151	=151	=151
8d	8f	8b
8c	4g	16a
.	.	16g
8G	.	8g
8B-	8d	16f#x
.	.	16g
4A	4c	8.f#x
.	.	16e
=152	=152	=152
4G	4d	4g
4d	4r	8f
.	.	4a
8c	4e	.
[8A	.	[8cc
=153	=153	=153
8A]	8c	8cc]
4c	4e	8b
.	.	4a
8B-	8d	.
4c	4e	8g
.	.	[8a
=154	=154	=154
8F	8d	16a]
.	.	16f
4A	4c	4f
8B-	8d	16e
.	.	16f
4G	4Bnx	8.e
.	.	16d
=155	=155	=155
4G	4Bnx	4e
[2F	[2c	[2f
=156	=156	=156
2F]	2c]	2f]
4r	4r	4r
==	==	==
*-	*-	*-
!!!ENC: Mark Laxton
!!!EDD: Mark Laxton
!!!YEC: Mark Laxton, 1987
!!!EMD: Reference records added by D. Huron, 2001
!!!EEV: 1.1
